korla/actions/symbolic/twitter-profile-symbolic.svg

<svg style="clip-rule:evenodd;fill-rule:evenodd;stroke-linejoin:round;stroke-miterlimit:2" version="1.1" viewBox="0 0 16 16" xmlns="http://www.w3.org/2000/svg">
 <g transform="translate(0 -1.0024)">
  <path d="m10.4 11.08c-0.29 0.68-1.28 1.2-2.45 1.2s-2.15-0.51-2.44-1.19c-2.47 0.25-3.764 0.921-4.024 1.723l-0.486 1.837c0 0.2 0.16 0.35 0.35 0.35 4.433 0.716 8.867 0.718 13.3 0 0.19 0 0.35-0.15 0.35-0.35l-0.486-1.83c-0.267-0.822-1.604-1.5-4.114-1.74z" style="fill-opacity:.5;fill:rgb(223,223,223)"/>
 </g>
 <g transform="matrix(.89295 0 0 .89295 .857357 -.0444136)">
  <path d="m8.01 1.69c-1.83 0-3.32 1.55-3.38 3.49-0.04 0.01-0.09 0.03-0.13 0.06-0.42 0.23-0.376 0.798-0.086 1.458 0.23 0.54 0.486 1.012 0.866 1.002 0.28 1.77 1.924 3.09 2.72 3.09s2.545-1.728 2.76-3.09c0.37 0.01 0.602-0.474 0.832-1.014 0.29-0.66 0.358-1.216-0.062-1.446-0.04-0.03-0.08-0.05-0.13-0.06-0.05-1.94-1.55-3.49-3.38-3.49h-0.01z" style="fill:rgb(223,223,223)"/>
 </g>
</svg>

<svg xmlns="http://www.w3.org/2000/svg" width="16" height="16" version="1.1">
 <path style="fill:#dfdfdf" d="M 8.01,1.69 C 6.18,1.69 4.69,3.24 4.63,5.18 4.59,5.19 4.54,5.21 4.5,5.24 4.08,5.47 3.97,6.18 4.26,6.84 4.49,7.38 4.9,7.71 5.28,7.7 5.56,9.47 6.68,10.79 8.01,10.79 8.02,10.79 8.02,10.79 8.02,10.79 9.36,10.79 10.48,9.47 10.76,7.7 11.13,7.71 11.54,7.38 11.77,6.84 12.06,6.18 11.95,5.47 11.53,5.24 11.49,5.21 11.45,5.19 11.4,5.18 11.35,3.24 9.85,1.69 8.02,1.69 8.02,1.69 8.02,1.69 8.01,1.69 Z M 10.4,11.08 C 10.11,11.76 9.12,12.28 7.95,12.28 6.78,12.28 5.8,11.77 5.51,11.09 3.04,11.34 1.24,11.96 1.02,12.7 1.02,12.7 1.02,12.71 1.02,12.72 1.02,12.74 1.01,12.77 1.01,12.79 1.01,12.81 1,12.81 1,12.83 1,12.83 1,12.83 1,12.84 V 14.65 C 1,14.85 1.16,15 1.35,15 H 14.65 C 14.84,15 15,14.85 15,14.65 V 12.84 C 15,12.83 15,12.82 15,12.82 15,12.77 14.98,12.74 14.97,12.7 14.75,11.95 12.91,11.32 10.4,11.08 Z"/>
</svg>
